X: 15
T: I Believe in Father Christmas + Troika interlude
C: Greg Lake & Peter Sinfield
Z: DW
M: 4/4
L: 1/8
K: D
[|\
| "G"z2BA- "D"AF2D | "Em7"E2DE- "D"EF-F2 | "G"z2BA- "D"AF2D | "A"E2DD- "D"D2z2 |\
| "G"z2BB "D"A2FD | "Em7"ED2E- "D"EF-F2 | "G"zDBB " D"A2FD | "A"ED2D- "D"D2z2 |]
| "C"z2=cc "G"BAG2 | "D"A2AG- GA-A2D | "C"=cc2B- "G"BA2G | "D"AA2A- A2 zA/A/ |\
| "Bm"d2dd "F#m"c2AA | "G"BAA2 "D"A2zD/D/ | F2FF "C"ED=CD- | "D"D4 z2 |]
"^Troika"A2 |\
| "G"dcBc d2B2 | "D"A2B2 F2A2 | "G"BAG2 d2cd | "D"A6 GF "^I"|\
| "Em"E2B2 "A7"AGFG | "D"AGFG A2dB | "G"G2FG "A7"A2A2 | "D"d6 z2 |]

%%sep 1 1 500

